!! 00000] TT[WS
!!!OTL: Ba cong
!!!ARE: Asia, China, Shanxi Linxian
!! Ethnic Group: Han
!! WII, 52
!!!SCT: J0471
!!!YEM: Copyright 1995, estate of Helmut Schaffrath.
**kern
*ICvox
*Ivox
*M2/4
*k[b-]
*F:
{8dd
8cc
8a
8cc
=1
2g
=2
8dd
8cc
8a
8cc
=3
2g}
=4
{4f
4g
=5
8a
8ff
8dd
8cc
=6
8cc
8g
8cc
8ff
=7
8cc
8a
8g
8f}
=8
{4c
4f
=9
8g
4d
8B-
=10
2c}
=11
{8a
4g
8c
=12
2f
=13
4c
4f
=14
8cc
8a
4g
=15
8d
4d
8B-
=16
2c}
==
!!!AGN: Xiaodiao. Qingge, Sichun
!!!ONB: ESAC (Essen Associative Code) Database: CHINA
!!!AMT: simple duple
!!!AIN: vox
!!!EED: Helmut Schaffrath
!!!EEV: 1.0
*-
